X: 1754
T: Ochnee Ochen Sue
B: australian traditional tunes wiki
M:2/4
L:1/16
R: Set Tune
Q: 1/4=100
K:D
V:1 
g|:"D"f2A2 A3d|"Em"c2B2 B3e|"A7"d2c2 B2c2|"D"d2e2 f3g|
f2A2 A3d|"Em"c2B2 B2g2|"D"f2gf "A7"A2Bc|"D"d4d4:|
|:"D"f2A2 f2gf|"A7"e2d2 e2f2|"G"g2f2 g2a2|"A7"g2fe d2e2|
"D"f2A2 f2gf|"A7"e2d2 e2fg|a2a2 agfe|"D"d4d4:|
% abcbook-tune_id 6342d53ae408d1e8986e37c3


% abcbook-boost 0
% abcbook-tablature 
% abcbook-transpose 
% abcbook-lastupdated 1665324381875
% abcbook-soundfonts 
% abcbook-repeats 1
% NFF Book 2006

